Hatter-kde-dark/actions/24/svn-update.svg

<svg xmlns="http://www.w3.org/2000/svg" viewBox="0 0 24 24">
  <defs id="defs3051">
    <style type="text/css" id="current-color-scheme">
      .ColorScheme-Text {
        color:#dedede;
      }
      </style>
  </defs>
 <path style="fill:currentColor;fill-opacity:1;stroke:none" 
     d="M 11.5 4 C 10.84576 4 10.297797 4.41808 10.091797 5 L 6 5 L 5 5 L 5 6 L 5 17.091797 C 4.41808 17.297797 4 17.84576 4 18.5 C 4 19.331 4.669 20 5.5 20 C 6.331 20 7 19.331 7 18.5 C 7 17.84576 6.58192 17.297797 6 17.091797 L 6 6 L 10.091797 6 C 10.242137 6.4247 10.5753 6.7578631 11 6.9082031 L 11 13 L 11 14 L 12 14 L 12.091797 14 C 12.297797 14.58192 12.84576 15 13.5 15 C 14.331 15 15 14.331 15 13.5 C 15 12.669 14.331 12 13.5 12 C 12.84576 12 12.297797 12.41808 12.091797 13 L 12 13 L 12 6.9082031 C 12.58192 6.7022031 13 6.15424 13 5.5 C 13 4.669 12.331 4 11.5 4 z M 11.5 5 C 11.777 5 12 5.223 12 5.5 C 12 5.777 11.777 6 11.5 6 C 11.223 6 11 5.777 11 5.5 C 11 5.223 11.223 5 11.5 5 z M 13.5 13 C 13.777 13 14 13.223 14 13.5 C 14 13.777 13.777 14 13.5 14 C 13.223 14 13 13.777 13 13.5 C 13 13.223 13.223 13 13.5 13 z M 17 14 L 17 18.292969 L 14.707031 16 L 14 16.707031 L 17.292969 20 L 17.5 20.207031 L 17.707031 20 L 21 16.707031 L 20.292969 16 L 18 18.292969 L 18 14 L 17 14 z M 5.5 18 C 5.777 18 6 18.223 6 18.5 C 6 18.777 5.777 19 5.5 19 C 5.223 19 5 18.777 5 18.5 C 5 18.223 5.223 18 5.5 18 z "
     class="ColorScheme-Text"
     />
</svg>

<?xml version="1.0" encoding="UTF-8"?>
<svg viewBox="0 0 24 24" xmlns="http://www.w3.org/2000/svg">
 <defs id="defs3051">
  <style id="current-color-scheme" type="text/css">.ColorScheme-Text {
        color:#dedede;
      }</style>
 </defs>
 <path class="ColorScheme-Text" d="m11.5 4c-0.65424 0-1.2022 0.41808-1.4082 1h-4.0918-1v1 11.092c-0.58192 0.206-1 0.75396-1 1.4082 0 0.831 0.669 1.5 1.5 1.5s1.5-0.669 1.5-1.5c0-0.65424-0.41808-1.2022-1-1.4082v-11.092h4.0918c0.15034 0.4247 0.4835 0.75786 0.9082 0.9082v6.0918 1h1 0.091797c0.206 0.58192 0.75396 1 1.4082 1 0.831 0 1.5-0.669 1.5-1.5s-0.669-1.5-1.5-1.5c-0.65424 0-1.2022 0.41808-1.4082 1h-0.091797v-6.0918c0.58192-0.206 1-0.75396 1-1.4082 0-0.831-0.669-1.5-1.5-1.5zm0 1c0.277 0 0.5 0.223 0.5 0.5s-0.223 0.5-0.5 0.5-0.5-0.223-0.5-0.5 0.223-0.5 0.5-0.5zm2 8c0.277 0 0.5 0.223 0.5 0.5s-0.223 0.5-0.5 0.5-0.5-0.223-0.5-0.5 0.223-0.5 0.5-0.5zm3.5 1v4.293l-2.293-2.293-0.70703 0.70703 3.5 3.5 3.5-3.5-0.70703-0.70703-2.293 2.293v-4.293h-1zm-11.5 4c0.277 0 0.5 0.223 0.5 0.5s-0.223 0.5-0.5 0.5-0.5-0.223-0.5-0.5 0.223-0.5 0.5-0.5z" fill="currentColor"/>
</svg>
